X:175
T:Steirer
C:traditionell
R:Steirer
A:Bad Aussee, Salzkammergut
B:"Pfeifermusik aus Bad Ischl", Lois Blamberger, 3. Auflage, Bad Ischl 1990
S:im buch mit der Angabe: aus der Sammlung vom Blamberger Lois
N:im buch in G, nr. 8/3
Z:abc transcription Simon Wascher
M:3/4
L:1/8
K:G
V:1
d2 |\
(Adf Adf) | ""g2 (Bdgd) | ""f2 (Adfd) | ""g2 (Bdgd) |\
(Adf Adf) | ""g2 (Bdgd) | ""f2 (Adfd) | g2 z2 :|
V:2
g2 |\
(dfad' dd') | ""b2 (dgbd') | ""a2 (dfad') | ""b2 (dgbg) |\
(dfad' dd') | ""b2 (dgbd') | ""a2 (dfad') | b2 z2 :|
